X: 1
T: Johnny's wedding
M: 4/4
L: 1/8
R: reel
K: Gdor
A|BGdG BGGB|AFcF AFFA|BGdG BGGB|AGFA ~G3A|
BGdG BGGB|AFcF AFFA|GBAc Bdc_e|dg^fa ~g3:|
|:a|bgag fdde|fdcB AFFa|bgag fdd^c|dg^fa ~g3a|
bgag fdde|fdcB AFFA|GBAc Bdc_e|dg^fa ~g3:|
